X:56
T:Reel 56
M: 4/4
L:1/8
K: D Mixolydian
FDEFGBGE|F3GABcA|dAFAGEEG|FDECD4|DEFAGBGB|A2GABddB|ABAFGFED|ECAFG4:||:A2dABGAG|FDGFGECE|AddABGAG|FDEFGBAG|A2dABGAG|FDGFEDCE|FDDAGEDC|B,CDFE3E:|.abc